X:1
T:Lady Caroline Lee,s Waltz. JGi.147
L:1/8
Q:3/8=70
M:6/8
I:linebreak $
K:C
V:1 treble 
V:1
 G | EGG ABc | DEF E2 d | ecG ceg | GAB c2 :: e | fdd BGG | ecc ceg | fdd BGG |$ ceg c2 :: [Gg] | %11
 [Gg][Ff][Gg] [cc'][Bb][cc'] | [Aa][Gg][Aa] [Ff]2 [Dd] | [Ee][Ff][Gg] [Gg][Ff][Ee] | %14
 [Dd][Cc][Dd] [Cc]2 :| %15
